lib/logo_tmp/nrk-logo-nrk-p3-urort.svg

<svg width="103" height="24" viewBox="0 0 103 24" fill="none" xmlns="http://www.w3.org/2000/svg">
<path d="M71.0455 13.2489C71.0528 13.7531 70.9931 14.256 70.8681 14.7444C70.7684 15.1415 70.5807 15.5111 70.3189 15.8259C70.0566 16.1229 69.7219 16.347 69.3473 16.4765C68.8822 16.6332 68.3932 16.7076 67.9025 16.6961C67.3307 16.7091 66.762 16.6086 66.2293 16.4004C65.7613 16.208 65.3776 15.8543 65.1479 15.4034C64.8734 14.8087 64.7459 14.1567 64.7761 13.5024V6H63.0018V13.7908C62.9828 14.4917 63.1125 15.1886 63.3823 15.8357C63.6126 16.3694 63.9728 16.8371 64.43 17.196C64.8901 17.5472 65.4158 17.8028 65.9762 17.948C66.5827 18.1082 67.2076 18.1876 67.8349 18.1843C68.7773 18.2211 69.7135 18.0175 70.5555 17.5928C71.2435 17.2211 71.7964 16.6415 72.1355 15.9368C72.4946 15.1531 72.6707 14.2979 72.6506 13.4359V6.00085H71.0453L71.0455 13.2489Z" fill="white"/>
<path d="M78.7003 9.32045C78.3842 9.40497 78.0824 9.53595 77.8047 9.7091C77.5164 9.88893 77.2499 10.1016 77.0105 10.3428C76.9705 10.3825 76.9317 10.4273 76.8922 10.4689V9.21033L75.1686 9.4638V17.9973H76.8922V11.6135C77.0203 11.5239 77.1528 11.4409 77.2893 11.3648C77.4584 11.2719 77.6334 11.19 77.8132 11.1198C77.9876 11.0522 78.165 10.9931 78.3455 10.9424C78.5309 10.8907 78.7202 10.854 78.9115 10.8325C79.1163 10.8101 79.3226 10.8044 79.5283 10.8156L79.7311 9.22751C79.3847 9.20247 79.0366 9.23386 78.7003 9.32045Z" fill="white"/>
<path d="M88.5518 8.99066L87.6055 9.98932C87.4811 9.89665 87.3514 9.81145 87.2169 9.73417C86.5105 9.35811 85.7187 9.17188 84.9188 9.19371C84.1145 9.17545 83.3194 9.36758 82.6122 9.75106C81.9594 10.1164 81.4256 10.662 81.0745 11.3226C80.6928 12.0637 80.5039 12.889 80.5253 13.7224C80.5036 14.55 80.6834 15.3704 81.0491 16.1131C81.146 16.2971 81.2574 16.473 81.3823 16.6392L80.4408 17.6427L81.2181 18.3521L82.1193 17.3782C82.2493 17.4753 82.3855 17.5637 82.5271 17.6427C83.2168 18.0047 83.9874 18.1849 84.7661 18.1662C85.5757 18.1833 86.3759 17.9912 87.0896 17.6086C87.7565 17.2402 88.3046 16.6893 88.6695 16.0205C89.0673 15.2722 89.2652 14.434 89.2441 13.5869C89.2635 12.7801 89.0805 11.9813 88.7118 11.2634C88.6115 11.0795 88.4968 10.9039 88.3688 10.7382L89.3455 9.70037L88.5518 8.99066ZM82.6544 11.9143C82.8439 11.4911 83.1597 11.137 83.5585 10.9004C83.9792 10.6669 84.4547 10.5503 84.9357 10.5624C85.3181 10.5537 85.6981 10.6257 86.0509 10.7737C86.2409 10.8591 86.4163 10.9739 86.5705 11.1139L82.6392 15.3598C82.4201 14.807 82.3161 14.2153 82.3334 13.621C82.3133 13.0354 82.423 12.4526 82.6544 11.9143ZM87.1155 15.395C86.9222 15.8319 86.6011 16.2001 86.1946 16.4511C85.7868 16.6872 85.3222 16.8071 84.8512 16.7978C84.3842 16.8087 83.9239 16.6855 83.5247 16.4429C83.4122 16.3706 83.3071 16.2875 83.2107 16.1948L87.1439 11.9481C87.2025 12.0827 87.2523 12.221 87.2929 12.3621C87.4042 12.7722 87.4582 13.1958 87.4535 13.6207C87.4735 14.2302 87.3581 14.8366 87.1155 15.3961V15.395Z" fill="white"/>
<path d="M94.939 9.32045C94.6229 9.40503 94.3211 9.536 94.0434 9.7091C93.7551 9.889 93.4886 10.1016 93.2492 10.3428C93.2092 10.3825 93.1703 10.4273 93.1309 10.4689V9.21033L91.4073 9.4638V17.9973H93.1309V11.6135C93.259 11.5239 93.3915 11.4409 93.528 11.3648C93.6971 11.2719 93.8721 11.19 94.0518 11.1198C94.2264 11.0522 94.4039 10.9931 94.5841 10.9424C94.7696 10.8908 94.9589 10.8541 95.1502 10.8325C95.355 10.8101 95.5613 10.8044 95.767 10.8156L95.9697 9.22751C95.6234 9.20249 95.2753 9.23387 94.939 9.32045Z" fill="white"/>
<path d="M102.273 16.5866C102.194 16.6032 102.107 16.6204 102.011 16.637L101.724 16.6877C101.631 16.7041 101.538 16.7154 101.445 16.7215C101.355 16.7274 101.27 16.7299 101.191 16.7299C100.932 16.7371 100.675 16.6851 100.439 16.5778C100.236 16.4818 100.068 16.3254 99.9577 16.13C99.8393 15.9097 99.781 15.6621 99.7887 15.4122V10.7311H102.171L102.357 9.37931H99.7887V6.70915L98.0651 7.31748V9.37931H96.7639L96.5781 10.7311H98.0651V15.7667C98.0575 16.1026 98.109 16.4372 98.2172 16.7553C98.3042 17.0069 98.4391 17.2393 98.6146 17.4396C98.7753 17.6181 98.9708 17.7619 99.1891 17.8621C99.4125 17.9647 99.648 18.0385 99.8901 18.0818C100.13 18.1259 100.373 18.1485 100.617 18.1493C100.797 18.1493 100.974 18.1437 101.149 18.1327C101.324 18.1217 101.484 18.1046 101.631 18.0818C101.778 18.0589 101.915 18.0336 102.045 18.006C102.174 17.9784 102.284 17.9525 102.374 17.9297L102.476 16.5274C102.41 16.5525 102.342 16.5723 102.273 16.5866Z" fill="white"/>
<path d="M46.4788 5.99988H42.7762C42.7762 5.99988 44.8802 9.45373 44.9039 9.4972C44.9832 9.59708 45.0275 9.72024 45.03 9.84774C45.0325 9.97524 44.993 10.1 44.9177 10.2029L42.7762 13.7133H46.4794C46.4794 13.7133 48.2651 10.7932 48.5093 10.3878C48.6252 10.2326 48.6869 10.0436 48.6852 9.84981C48.6834 9.65607 48.6182 9.46825 48.4995 9.31512C48.2361 8.86655 48.2355 8.86685 46.4788 5.99988Z" fill="white"/>
<path d="M42.2978 5.99992H39V17.9977H42.2978V5.99992Z" fill="white"/>
<path d="M58.0765 7.98751C57.952 7.77522 56.85 5.99988 56.85 5.99988H48.9243L50.6556 8.90382H54.8302L53.1082 11.7268L55.0278 14.952L53.1751 17.9968H56.5586C57.1026 17.107 57.9159 15.7305 58.0859 15.4485C58.2024 15.2927 58.2645 15.1028 58.2627 14.9082C58.261 14.7136 58.1953 14.525 58.076 14.3713C57.9066 14.0822 57.0004 12.6451 56.459 11.7604C56.459 11.7604 57.9159 9.34618 58.0859 9.06417C58.2023 8.90841 58.2645 8.71875 58.2628 8.52427C58.2611 8.32978 58.1957 8.14122 58.0765 7.98751Z" fill="white"/>
<path d="M50.4529 12.1166C49.9312 12.9686 49.059 14.3964 48.8955 14.6748C48.7805 14.8228 48.7172 15.0045 48.7155 15.192C48.7138 15.3795 48.7736 15.5623 48.8859 15.7125C49.0496 15.984 49.9287 17.4232 50.4529 18.2813C50.9769 17.424 51.8562 15.9849 52.0197 15.7125C52.1319 15.5623 52.1917 15.3795 52.1901 15.192C52.1884 15.0046 52.1253 14.8229 52.0104 14.6748C51.8469 14.3964 50.9743 12.9686 50.4529 12.1166Z" fill="white"/>
<path d="M6.10352e-05 17.995V5.99609H3.93725V17.995H6.10352e-05ZM9.29387 7.90577L11.5581 17.995H7.24923L4.54555 5.99609H6.96224C7.51641 5.98889 8.05412 6.18424 8.47456 6.54538C8.89568 6.89138 9.18501 7.37169 9.29387 7.90577ZM12.1496 17.995V5.99609H16.0868V17.995H12.1496ZM19.0605 10.5591C18.6363 10.5632 18.2188 10.4522 17.8526 10.238C17.4913 10.0291 17.1912 9.72895 16.9823 9.36759C16.7678 9.00133 16.6568 8.58376 16.661 8.15931C16.6562 7.73746 16.7673 7.32237 16.9823 6.95942C17.1934 6.60199 17.4932 6.30509 17.8526 6.09751C18.2189 5.8835 18.6363 5.77251 19.0605 5.77638C19.4823 5.77184 19.8972 5.88292 20.2603 6.09751C20.6161 6.30691 20.9127 6.60356 21.1221 6.95942C21.3369 7.32248 21.448 7.73749 21.4434 8.15931C21.4473 8.58372 21.3363 9.00122 21.1221 9.36759C20.9149 9.72737 20.618 10.0273 20.2603 10.238C19.8972 10.453 19.4819 10.5641 19.06 10.5591H19.0605ZM22.0517 17.995V5.99609H25.9892V17.995H22.0517ZM30.9738 12.5532C30.9849 12.5649 31.0693 12.7029 31.2272 12.9673C31.3851 13.2317 31.5907 13.5697 31.844 13.9813C32.0975 14.3927 32.3649 14.8293 32.6464 15.291C32.9278 15.7527 33.1927 16.1894 33.4409 16.6008C33.6882 17.0122 33.9698 17.4769 34.2858 17.995H29.9599C29.6893 17.5556 29.4442 17.1585 29.2245 16.8036C29.0049 16.4487 28.7714 16.0656 28.5239 15.6544C28.2759 15.2435 28.0307 14.8435 27.7883 14.4545C27.5459 14.0654 27.3376 13.7246 27.1633 13.4321C26.9883 13.1393 26.8671 12.9421 26.7997 12.8405C26.6326 12.5884 26.5337 12.2973 26.5127 11.9955C26.5295 11.7059 26.6227 11.426 26.7828 11.1841C26.8504 11.0714 26.9743 10.8714 27.1546 10.5841C27.3348 10.2968 27.5461 9.95605 27.7883 9.56172C28.0305 9.16739 28.2757 8.7646 28.5239 8.35337C28.7721 7.94214 29.0056 7.55623 29.2245 7.1957C29.4446 6.83555 29.6897 6.43558 29.9599 5.99581H34.2858L30.9397 11.4545C30.8361 11.6166 30.7778 11.8033 30.7707 11.9955C30.7818 12.1973 30.8523 12.3913 30.9732 12.5532H30.9738Z" fill="white"/>
</svg>

<svg xmlns="http://www.w3.org/2000/svg" viewBox="0 0 103 24"><path fill="#fff" d="M71.046 13.249a5.699 5.699 0 0 1-.178 1.495c-.1.398-.287.767-.55 1.082a2.298 2.298 0 0 1-.97.65 4.216 4.216 0 0 1-1.445.22 4.326 4.326 0 0 1-1.674-.296 2.117 2.117 0 0 1-1.081-.997 4.086 4.086 0 0 1-.372-1.9V6h-1.774v7.79c-.02.702.11 1.399.38 2.046.23.533.59 1.001 1.048 1.36.46.351.986.607 1.546.752a7.13 7.13 0 0 0 1.859.236 5.56 5.56 0 0 0 2.72-.591 3.711 3.711 0 0 0 1.58-1.656c.36-.784.536-1.64.516-2.501V6h-1.606v7.248ZM78.7 9.32a3.307 3.307 0 0 0-.895.39 4.4 4.4 0 0 0-.795.633c-.04.04-.078.084-.118.126V9.21l-1.723.254v8.533h1.723v-6.383c.128-.09.26-.173.397-.25.17-.092.344-.174.524-.244.175-.068.352-.127.532-.178a3.607 3.607 0 0 1 1.183-.126l.203-1.588a3.207 3.207 0 0 0-1.03.092ZM88.552 8.99l-.947 1a3.917 3.917 0 0 0-.388-.256 4.622 4.622 0 0 0-2.298-.54 4.619 4.619 0 0 0-2.307.557 3.896 3.896 0 0 0-1.537 1.572 4.963 4.963 0 0 0-.55 2.4 5.109 5.109 0 0 0 .524 2.39c.097.184.208.36.333.526l-.941 1.004.777.71.901-.975c.13.097.266.186.408.265.69.362 1.46.542 2.24.523.809.017 1.609-.175 2.323-.557a4.007 4.007 0 0 0 1.58-1.589 4.923 4.923 0 0 0 .574-2.433 4.832 4.832 0 0 0-.532-2.324c-.1-.184-.215-.36-.343-.525l.977-1.038-.794-.71Zm-5.898 2.924c.19-.423.506-.777.904-1.014.421-.233.897-.35 1.378-.338.382-.008.762.064 1.115.212.19.085.365.2.52.34l-3.932 4.246a4.374 4.374 0 0 1-.306-1.739c-.02-.586.09-1.168.321-1.707Zm4.462 3.481a2.367 2.367 0 0 1-.921 1.056 2.58 2.58 0 0 1-1.344.347 2.444 2.444 0 0 1-1.326-.355 2.059 2.059 0 0 1-.314-.248l3.933-4.247c.058.135.108.273.149.414.111.41.165.834.16 1.259.02.61-.095 1.216-.338 1.775v-.001ZM94.939 9.32a3.31 3.31 0 0 0-.896.39c-.288.179-.554.392-.794.633-.04.04-.079.084-.118.126V9.21l-1.724.254v8.533h1.724v-6.383c.128-.09.26-.173.397-.25.17-.092.344-.174.524-.244.174-.068.352-.127.532-.178a3.634 3.634 0 0 1 1.183-.126l.203-1.588a3.207 3.207 0 0 0-1.031.092ZM102.273 16.587a7.373 7.373 0 0 1-.262.05l-.287.05a2.577 2.577 0 0 1-.279.034c-.09.006-.175.009-.254.009a1.702 1.702 0 0 1-.752-.152 1.085 1.085 0 0 1-.481-.448 1.424 1.424 0 0 1-.17-.718v-4.68h2.383l.186-1.353h-2.568V6.71l-1.724.608V9.38h-1.301l-.186 1.352h1.487v5.036c-.007.336.044.67.152.988.087.252.222.484.398.685.16.178.356.322.574.422.224.103.459.177.701.22.24.044.483.066.727.067.18 0 .357-.005.532-.016a5.33 5.33 0 0 0 .482-.051 7.679 7.679 0 0 0 .743-.152l.102-1.403a1.332 1.332 0 0 1-.203.06ZM46.479 6h-3.703s2.104 3.454 2.128 3.497a.582.582 0 0 1 .014.706l-2.142 3.51h3.703s1.786-2.92 2.03-3.325a.886.886 0 0 0-.01-1.073c-.263-.448-.264-.448-2.02-3.315ZM42.298 6H39v11.998h3.298V6ZM58.077 7.988C57.952 7.775 56.85 6 56.85 6h-7.926l1.732 2.904h4.174l-1.722 2.823 1.92 3.225-1.853 3.045h3.384c.544-.89 1.357-2.267 1.527-2.549a.889.889 0 0 0-.01-1.077c-.17-.289-1.076-1.726-1.617-2.61l1.627-2.697a.889.889 0 0 0-.01-1.076Z"/><path fill="#fff" d="M50.453 12.117c-.522.852-1.394 2.28-1.558 2.558a.856.856 0 0 0-.01 1.037l1.568 2.57c.524-.858 1.403-2.297 1.567-2.57a.857.857 0 0 0-.01-1.037 391.872 391.872 0 0 0-1.557-2.558ZM0 17.995V5.996h3.937v11.999H0Zm9.294-10.09 2.264 10.09H7.25L4.546 5.996h2.416a2.276 2.276 0 0 1 1.513.55c.42.345.71.826.819 1.36Zm2.856 10.09V5.996h3.937v11.999H12.15Zm6.91-7.436a2.383 2.383 0 0 1-2.4-2.4 2.303 2.303 0 0 1 .322-1.2 2.412 2.412 0 0 1 3.278-.861c.356.209.653.506.862.861.215.363.326.778.321 1.2a2.4 2.4 0 0 1-1.183 2.079 2.303 2.303 0 0 1-1.2.321Zm2.992 7.436V5.996h3.937v11.999h-3.937Zm8.922-5.442c.01.012.095.15.253.414.158.265.364.603.617 1.014a327.152 327.152 0 0 1 1.597 2.62c.247.411.529.876.845 1.394H29.96c-.27-.44-.516-.837-.736-1.191-.22-.355-.453-.738-.7-1.15-.248-.41-.493-.81-.736-1.2-.242-.389-.45-.73-.625-1.022-.175-.293-.296-.49-.363-.591a1.75 1.75 0 0 1-.287-.845c.016-.29.11-.57.27-.812.067-.113.191-.313.372-.6a182.106 182.106 0 0 0 1.37-2.23c.247-.412.48-.798.7-1.158l.735-1.2h4.326l-3.346 5.458a1.078 1.078 0 0 0-.17.541c.012.202.082.396.203.558Z"/></svg>
